images/usecases/scada/energy-2.svg

<svg width="285" height="210" viewBox="0 0 285 210" fill="none" xmlns="http://www.w3.org/2000/svg">
<rect x="13.75" y="39.5234" width="164.5" height="164.5" rx="82.25" stroke="#91A3BE" stroke-width="1.5"/>
<path fill-rule="evenodd" clip-rule="evenodd" d="M66.6211 108.566C66.6211 107.376 67.5865 106.41 68.7773 106.41H87.4648C88.6557 106.41 89.6211 107.376 89.6211 108.566C89.6211 109.757 88.6557 110.723 87.4648 110.723H85.6134C85.539 111.527 85.5236 112.453 85.6295 113.386C85.8233 115.093 86.3828 116.504 87.3654 117.373C90.8032 120.411 92.2527 123.858 92.552 125.525C92.5746 125.651 92.5859 125.779 92.5859 125.906V145.223C92.5859 146.414 91.6206 147.379 90.4297 147.379H65.2734C64.0826 147.379 63.1172 146.414 63.1172 145.223C63.1172 144.032 64.0826 143.066 65.2734 143.066H88.2734V126.133C88.0585 125.283 87.075 122.871 84.5096 120.604C82.4016 118.741 81.5984 116.109 81.3445 113.872C81.2201 112.776 81.2179 111.699 81.2869 110.723H68.7773C67.5865 110.723 66.6211 109.757 66.6211 108.566Z" fill="#305680"/>
<path fill-rule="evenodd" clip-rule="evenodd" d="M74.0161 108.056C73.7808 107.09 72.9154 106.41 71.9211 106.41H68.2375C67.0466 106.41 66.0812 107.376 66.0812 108.566C66.0812 109.757 67.0466 110.723 68.2375 110.723H70.0889C70.1633 111.527 70.1787 112.453 70.0728 113.386C69.879 115.093 69.3195 116.504 68.337 117.373C64.8992 120.411 63.4496 123.858 63.1503 125.525C63.1277 125.651 63.1164 125.779 63.1164 125.906V145.223C63.1164 146.414 64.0818 147.379 65.2726 147.379C66.4635 147.379 67.4289 146.414 67.4289 145.223V126.133C67.6438 125.283 68.6273 122.871 71.1927 120.604C73.3008 118.741 74.1039 116.109 74.3578 113.872C74.6142 111.613 74.3517 109.434 74.0161 108.056Z" fill="#305680"/>
<path fill-rule="evenodd" clip-rule="evenodd" d="M102.738 108.566C102.738 107.376 103.704 106.41 104.895 106.41H123.582C124.773 106.41 125.738 107.376 125.738 108.566C125.738 109.757 124.773 110.723 123.582 110.723H121.731C121.656 111.527 121.641 112.453 121.747 113.386C121.94 115.093 122.5 116.504 123.483 117.373C126.92 120.411 128.37 123.858 128.669 125.525C128.692 125.651 128.703 125.779 128.703 125.906V145.223C128.703 146.414 127.738 147.379 126.547 147.379H101.391C100.2 147.379 99.2344 146.414 99.2344 145.223C99.2344 144.032 100.2 143.066 101.391 143.066H124.391V126.133C124.176 125.283 123.192 122.871 120.627 120.604C118.519 118.741 117.716 116.109 117.462 113.872C117.337 112.776 117.335 111.699 117.404 110.723H104.895C103.704 110.723 102.738 109.757 102.738 108.566Z" fill="#305680"/>
<path fill-rule="evenodd" clip-rule="evenodd" d="M110.133 108.056C109.898 107.09 109.033 106.41 108.038 106.41H104.355C103.164 106.41 102.198 107.376 102.198 108.566C102.198 109.757 103.164 110.723 104.355 110.723H106.206C106.28 111.527 106.296 112.453 106.19 113.386C105.996 115.093 105.437 116.504 104.454 117.373C101.016 120.411 99.5668 123.858 99.2675 125.525C99.2449 125.651 99.2336 125.779 99.2336 125.906V145.223C99.2336 146.414 100.199 147.379 101.39 147.379C102.581 147.379 103.546 146.414 103.546 145.223V126.133C103.761 125.283 104.744 122.871 107.31 120.604C109.418 118.741 110.221 116.109 110.475 113.872C110.731 111.613 110.469 109.434 110.133 108.056Z" fill="#305680"/>
<path fill-rule="evenodd" clip-rule="evenodd" d="M130.5 147.379H61.5C57.5305 147.379 54.3125 150.597 54.3125 154.566C54.3125 158.536 57.5305 161.754 61.5 161.754H130.5C134.47 161.754 137.688 158.536 137.688 154.566C137.688 150.597 134.47 147.379 130.5 147.379ZM61.5 143.066C55.1487 143.066 50 148.215 50 154.566C50 160.918 55.1487 166.066 61.5 166.066H130.5C136.851 166.066 142 160.918 142 154.566C142 148.215 136.851 143.066 130.5 143.066H61.5Z" fill="#305680"/>
<path d="M69.4062 154.566C69.4062 155.757 68.4409 156.723 67.25 156.723C66.0591 156.723 65.0938 155.757 65.0938 154.566C65.0938 153.376 66.0591 152.41 67.25 152.41C68.4409 152.41 69.4062 153.376 69.4062 154.566Z" fill="#305680"/>
<path d="M80.9062 154.566C80.9062 155.757 79.9409 156.723 78.75 156.723C77.5591 156.723 76.5938 155.757 76.5938 154.566C76.5938 153.376 77.5591 152.41 78.75 152.41C79.9409 152.41 80.9062 153.376 80.9062 154.566Z" fill="#305680"/>
<path d="M92.4062 154.566C92.4062 155.757 91.4409 156.723 90.25 156.723C89.0591 156.723 88.0938 155.757 88.0938 154.566C88.0938 153.376 89.0591 152.41 90.25 152.41C91.4409 152.41 92.4062 153.376 92.4062 154.566Z" fill="#305680"/>
<path d="M103.906 154.566C103.906 155.757 102.941 156.723 101.75 156.723C100.559 156.723 99.5938 155.757 99.5938 154.566C99.5938 153.376 100.559 152.41 101.75 152.41C102.941 152.41 103.906 153.376 103.906 154.566Z" fill="#305680"/>
<path d="M115.406 154.566C115.406 155.757 114.441 156.723 113.25 156.723C112.059 156.723 111.094 155.757 111.094 154.566C111.094 153.376 112.059 152.41 113.25 152.41C114.441 152.41 115.406 153.376 115.406 154.566Z" fill="#305680"/>
<path d="M126.906 154.566C126.906 155.757 125.941 156.723 124.75 156.723C123.559 156.723 122.594 155.757 122.594 154.566C122.594 153.376 123.559 152.41 124.75 152.41C125.941 152.41 126.906 153.376 126.906 154.566Z" fill="#305680"/>
<path fill-rule="evenodd" clip-rule="evenodd" d="M50 85.7461C50 84.5552 50.9654 83.5898 52.1562 83.5898L107.141 83.5898C108.331 83.5898 109.297 84.5552 109.297 85.7461C109.297 86.937 108.331 87.9023 107.141 87.9023L52.1563 87.9023C50.9654 87.9023 50 86.937 50 85.7461ZM118.102 85.7461C118.102 84.5552 119.067 83.5898 120.258 83.5898L139.844 83.5898C141.035 83.5898 142 84.5552 142 85.7461C142 86.937 141.035 87.9023 139.844 87.9023L120.258 87.9023C119.067 87.9023 118.102 86.937 118.102 85.7461Z" fill="#305680"/>
<path fill-rule="evenodd" clip-rule="evenodd" d="M113.789 89.6094C114.98 89.6094 115.945 90.5748 115.945 91.7656V97.5156C115.945 98.7065 114.98 99.6719 113.789 99.6719C112.598 99.6719 111.633 98.7065 111.633 97.5156V91.7656C111.633 90.5748 112.598 89.6094 113.789 89.6094Z" fill="#305680"/>
<path fill-rule="evenodd" clip-rule="evenodd" d="M113.969 89.6992C116.152 89.6992 117.922 87.9293 117.922 85.7461C117.922 83.5628 116.152 81.793 113.969 81.793C111.785 81.793 110.016 83.5628 110.016 85.7461C110.016 87.9293 111.785 89.6992 113.969 89.6992ZM113.969 94.0117C118.534 94.0117 122.234 90.3111 122.234 85.7461C122.234 81.1811 118.534 77.4805 113.969 77.4805C109.404 77.4805 105.703 81.1811 105.703 85.7461C105.703 90.3111 109.404 94.0117 113.969 94.0117Z" fill="#305680"/>
<path d="M97.3086 0.773438V16.7734" stroke="#91A3BE" stroke-width="1.5"/>
<line x1="263.629" y1="112.234" x2="192.856" y2="112.234" stroke="#91A3BE" stroke-width="1.5"/>
<mask id="path-19-inside-1_10336_18456" fill="white">
<path d="M96.6276 15.7671C109.37 15.7351 121.993 18.2219 133.774 23.0849C145.556 27.948 156.263 35.0918 165.285 44.1072C174.306 53.1226 181.463 63.8324 186.346 75.6232C191.229 87.4139 193.742 100.054 193.741 112.819L192.394 112.819C192.394 100.231 189.916 87.7672 185.101 76.1404C180.286 64.5137 173.229 53.9529 164.333 45.0629C155.437 36.1729 144.878 29.1284 133.261 24.333C121.644 19.5376 109.196 17.0854 96.631 17.117L96.6276 15.7671Z"/>
</mask>
<path d="M96.6276 15.7671C109.37 15.7351 121.993 18.2219 133.774 23.0849C145.556 27.948 156.263 35.0918 165.285 44.1072C174.306 53.1226 181.463 63.8324 186.346 75.6232C191.229 87.4139 193.742 100.054 193.741 112.819L192.394 112.819C192.394 100.231 189.916 87.7672 185.101 76.1404C180.286 64.5137 173.229 53.9529 164.333 45.0629C155.437 36.1729 144.878 29.1284 133.261 24.333C121.644 19.5376 109.196 17.0854 96.631 17.117L96.6276 15.7671Z" fill="#B2BFD1" stroke="#91A3BE" stroke-width="2" mask="url(#path-19-inside-1_10336_18456)"/>
<path d="M274.243 122.255C268.796 122.255 264.377 117.83 264.377 112.37C264.377 106.909 268.796 102.484 274.243 102.484C279.691 102.484 284.109 106.909 284.109 112.37C284.109 117.83 279.691 122.255 274.243 122.255Z" fill="#F4F8FE" stroke="#91A3BE" stroke-width="1.5"/>
</svg>

<svg width="285" height="210" fill="none" xmlns="http://www.w3.org/2000/svg"><rect x="13.75" y="39.523" width="164.5" height="164.5" rx="82.25" stroke="#91A3BE" stroke-width="1.5"/><path fill-rule="evenodd" clip-rule="evenodd" d="M66.621 108.566c0-1.19.966-2.156 2.156-2.156h18.688a2.157 2.157 0 0 1 0 4.313h-1.852c-.074.804-.09 1.73.016 2.663.194 1.707.754 3.118 1.736 3.987 3.438 3.038 4.888 6.485 5.187 8.152.023.126.034.254.034.381v19.317a2.156 2.156 0 0 1-2.156 2.156H65.273a2.156 2.156 0 1 1 0-4.313h23v-16.933c-.215-.85-1.198-3.262-3.763-5.529-2.108-1.863-2.912-4.495-3.166-6.732a17.317 17.317 0 0 1-.057-3.149h-12.51a2.157 2.157 0 0 1-2.156-2.157Z" fill="#305680"/><path fill-rule="evenodd" clip-rule="evenodd" d="M74.016 108.056a2.156 2.156 0 0 0-2.095-1.646h-3.684a2.157 2.157 0 0 0 0 4.313h1.852c.074.804.09 1.73-.016 2.663-.194 1.707-.753 3.118-1.736 3.987-3.438 3.038-4.887 6.485-5.187 8.152a2.162 2.162 0 0 0-.034.381v19.317a2.156 2.156 0 1 0 4.313 0v-19.09c.215-.85 1.198-3.262 3.764-5.529 2.108-1.863 2.91-4.495 3.165-6.732.256-2.259-.006-4.438-.342-5.816ZM102.738 108.566c0-1.19.966-2.156 2.157-2.156h18.687a2.156 2.156 0 0 1 0 4.313h-1.851c-.075.804-.09 1.73.016 2.663.193 1.707.753 3.118 1.736 3.987 3.437 3.038 4.887 6.485 5.186 8.152.023.126.034.254.034.381v19.317a2.156 2.156 0 0 1-2.156 2.156h-25.156a2.156 2.156 0 1 1 0-4.313h23v-16.933c-.215-.85-1.199-3.262-3.764-5.529-2.108-1.863-2.911-4.495-3.165-6.732a17.264 17.264 0 0 1-.058-3.149h-12.509a2.157 2.157 0 0 1-2.157-2.157Z" fill="#305680"/><path fill-rule="evenodd" clip-rule="evenodd" d="M110.133 108.056a2.155 2.155 0 0 0-2.095-1.646h-3.683a2.157 2.157 0 0 0 0 4.313h1.851c.074.804.09 1.73-.016 2.663-.194 1.707-.753 3.118-1.736 3.987-3.438 3.038-4.887 6.485-5.186 8.152a2.162 2.162 0 0 0-.034.381v19.317a2.156 2.156 0 1 0 4.312 0v-19.09c.215-.85 1.198-3.262 3.764-5.529 2.108-1.863 2.911-4.495 3.165-6.732.256-2.259-.006-4.438-.342-5.816Z" fill="#305680"/><path fill-rule="evenodd" clip-rule="evenodd" d="M130.5 147.379h-69a7.187 7.187 0 1 0 0 14.375h69a7.188 7.188 0 1 0 0-14.375Zm-69-4.313c-6.351 0-11.5 5.149-11.5 11.5 0 6.352 5.149 11.5 11.5 11.5h69c6.351 0 11.5-5.148 11.5-11.5 0-6.351-5.149-11.5-11.5-11.5h-69Z" fill="#305680"/><path d="M69.406 154.566a2.157 2.157 0 1 1-4.313 0 2.157 2.157 0 0 1 4.313 0ZM80.906 154.566a2.157 2.157 0 1 1-4.313 0 2.157 2.157 0 0 1 4.313 0ZM92.406 154.566a2.157 2.157 0 1 1-4.313 0 2.157 2.157 0 0 1 4.313 0ZM103.906 154.566a2.157 2.157 0 1 1-4.313.001 2.157 2.157 0 0 1 4.313-.001ZM115.406 154.566a2.157 2.157 0 1 1-4.313.001 2.157 2.157 0 0 1 4.313-.001ZM126.906 154.566a2.157 2.157 0 1 1-4.313.001 2.157 2.157 0 0 1 4.313-.001Z" fill="#305680"/><path fill-rule="evenodd" clip-rule="evenodd" d="M50 85.746c0-1.19.965-2.156 2.156-2.156h54.985a2.157 2.157 0 0 1 0 4.312H52.156A2.156 2.156 0 0 1 50 85.746Zm68.102 0c0-1.19.965-2.156 2.156-2.156h19.586a2.156 2.156 0 1 1 0 4.312h-19.586a2.156 2.156 0 0 1-2.156-2.156ZM113.789 89.61c1.191 0 2.156.965 2.156 2.156v5.75a2.156 2.156 0 1 1-4.312 0v-5.75c0-1.191.965-2.157 2.156-2.157Z" fill="#305680"/><path fill-rule="evenodd" clip-rule="evenodd" d="M113.969 89.7a3.953 3.953 0 1 0 0-7.907 3.953 3.953 0 0 0 0 7.906Zm0 4.312c4.565 0 8.265-3.7 8.265-8.266a8.266 8.266 0 1 0-8.265 8.266Z" fill="#305680"/><path d="M97.309.773v16M263.629 112.234h-70.773" stroke="#91A3BE" stroke-width="1.5"/><mask id="a" fill="#fff"><path d="M96.628 15.767a96.716 96.716 0 0 1 37.146 7.318 96.864 96.864 0 0 1 31.511 21.022 97.058 97.058 0 0 1 21.061 31.516 97.195 97.195 0 0 1 7.395 37.196h-1.347a95.863 95.863 0 0 0-7.293-36.679 95.7 95.7 0 0 0-20.768-31.077 95.52 95.52 0 0 0-31.072-20.73 95.37 95.37 0 0 0-36.63-7.216l-.003-1.35Z"/></mask><path d="M96.628 15.767a96.716 96.716 0 0 1 37.146 7.318 96.864 96.864 0 0 1 31.511 21.022 97.058 97.058 0 0 1 21.061 31.516 97.195 97.195 0 0 1 7.395 37.196h-1.347a95.863 95.863 0 0 0-7.293-36.679 95.7 95.7 0 0 0-20.768-31.077 95.52 95.52 0 0 0-31.072-20.73 95.37 95.37 0 0 0-36.63-7.216l-.003-1.35Z" fill="#B2BFD1" stroke="#91A3BE" stroke-width="2" mask="url(#a)"/><path d="M274.243 122.255c-5.447 0-9.866-4.425-9.866-9.885 0-5.461 4.419-9.886 9.866-9.886 5.448 0 9.866 4.425 9.866 9.886 0 5.46-4.418 9.885-9.866 9.885Z" fill="#F4F8FE" stroke="#91A3BE" stroke-width="1.5"/></svg>
